X:13
T:Mason's Apron, The
R:reel
M:C|
K:A
  e2f2g2|:aA~A2 cBAF|EFAB cABc|dB~B2 BcBA|GABc defg|
(3agf ec AcAF|EFAB (3cBA Bc|dcde fagf|1 ecBc A2eg:|2 ecBc A2ed||
  (3cBA ec fcec|c2ec fedc|(3dcB fB aBfB|B2aB gBfB|
  (3cBA ec fcec|c2ec fedc |dcde fgaf|1 edcB A2AB:|2 ecBc A2||
|:e2|aAA2 ABAF|EFAc dcBA|dBB2 BcBA|Bcde fefg|
aAA2 ABAF|EFAc dcBA|dcde fefa|A2 cB A2:|
|:ed|cAeA fAeA|cAeA fedc|dBfB aBfB|defg afed|
cAeA fAeA|EFAc dcBA|d2dc defa|A2 cB A2:|
|:ed|ceee feee|ceee fedc|dfff afff|dfff agfe|
ceee feee|EFAc dcBA|dcde fefa|A2 cB A2:|
|:e2|aeee aeee|aege feee|beee beee|beae gefg|
aeee aeee|aege feee|dcde fefa|A2 cB A2:|
|ed|c2Ac eAce|AceA cecA|d2 Ad fAdf|AdfA dfed|
c2Ac eAce|AceA cecA|d2dc defa|A2 cB A2:|
ae (3eee fece| ae (3eee fece |bf (3fff gfdf | bf (3fff gfdf |
ae (3eee fece| ae (3eee fece | dcde fgaf|1 ecBc A2eg:|2 ecBc A2AB|
(3B=c^c ec fcec|(3B=c^c ec fcec |(3ccd fd adfd|d2ad gdfd|
(3B=c^c ec fcec|(3B=c^c ec fcec |dcde fgaf|1 edcB A2AB:|2 ecBc A2||
(3cdc ec AccG|cc=Gc cGcc|(3ded fd Bdd^A|dd=Ad dGdd|
(3cdc ec AccG|cc=Gc cGcc|(3ded de feed|cAAG A2eg||
aeeg aeee|(3fga ga fee^a|begb egbe |(3g^ab ab geef|
aece aece|a2ga feeg |agaf efec |BA (3B=c^c A2||
ac'ea c'e (3eee|bd'eb d'e (3eee|ac'ea c'eac'|gbeg be (3g^ab|
ac'ea c'e (3eee|bd'ebd'e (3eee|ac'ea begb|(3=gfe e^g a2 |
ac'ea c'e (3abc'|bd'eb d'e (3bc'd'|ac'ea c'e (3abc'|gbeg be (3g^ab|
ac'ea c'e (3abc'|bd'ebd'e (3eee|d'ec'e beae|gefg a2||
(3c'c'c' e'c' f'c'e'c'|(3c'c'c' e'c' f'c'e'c' |(3d'd'd' f'd' 
a'd'f'd'|(3d'd'd' f'd' a'd'f'd'|
(3c'c'c' e'c' f'c'e'c'|(3c'c'c' e'c' f'c'e'c'|(3d'd'd' d'e' 
f'e'e'd'|c'aag a2z2||
(3c'c'c' e'c' ac'c'g|c'c'=gc' c'gc'c'|(3d'd'd' f'd' bd'd'^a|d'd'=ad' 
d'gd'd'|
(3c'c'c' e'c' ac'c'g|c'c'=gc' c'gc'c'|(3d'd'd' d'e' f'e'e'd'|c'aag a2 
(3efg|
aA~A2 cBAF|EFAB cABc|dB~B2 BcBA|GABc defg|
(3agf ec AcAF|EFAB (3cBA Bc|dcde fefg|ecBc A2eg
(3aaa (3ggg (3fff (3eee|(3ddd (3ccc (3BBB (3AAA|
(3GGG (3FFF (3EEE (3DDD|(3CCC (3B,B,B,A,4
